X: 16883
T: Haud Awa' Hame
R: jig
M: 6/8
K: Dmajor
|:cff f2 e|faf ecB|cfe f2 e|cBA f2 e|
cff f2 e|faf ecB|AAA Bce|cBA f2 e:|
|:cBA AAA|cBA Bce|cBA AAA|Bce f2 e|
cBA AAA|cBA Bce|fff f2 e|cBA f2 e:|

